X: 1877
T: Tuna Nehri Akmam Diyor
C: Muzaffer Sarısözen
O: Turkey
F: http://compmusic.upf.edu/node/140
N: muhayyerkurdi--mars--semai--tuna_nehri--rumeli
N: makam= muhayyerkurdi
N: form= mars
N: usul= semai = 3/4
M: 3/4
L: 1/16
K: C _B   
Q: 1/4=69
%%MIDI tuningsystem comma53
g2a2 a4 a4  | g2a2 b3a a4  | g2a2 b3a a3g  | \
w:  ARANAĞME  |   |   | 
g2a2 gf2e e4  | 
w:   | 
e8 z4  | g2a2 a4 a4  | g2a2 b3a a4  | g2a2 b3a a3g  | \
w:   |  ARANAĞME  |   |   | 
g2a2 gf2e e4  | 
w:   | 
e8 z4  | g2a2 a4 a4  | g2a2 b3a a4  | g2a2 b3a a3g  | \
w:   |  Tu na  neh ri   |  ak mam  di *  yor    |  Et ra fı *  mı   | 
g2a2 gf2e e4  | 
w:  yık mam  di *  *  yor    | 
e8 z4  | e2f2 d4 a4  | g2f2 e3d c4  | d2e2 f3e d2c2  | \
w:   |  Ü nü  bü yük   |  Os man  Pa *  şa    |  P lev ne *  den   | 
c2d2 cB2A A4  | 
w:  çık mam  di *  *  yor    | 
A8 z4  | e2f2 d4 a4  | g2f2 e3d c4  | d2e2 f3e d2c2  | \
w:   |  Ü nü  bü yük   |  Os man  Pa *  şa    |  P lev ne *  den   | 
c2d2 cB2A A4  | 
w:  çık mam  di *  *  yor    | 
A8 z4  | g2a2 a4 a4  | g2a2 b3a a4  | g2a2 b3a a3g  | \
w:   |  ARANAĞME  |   |   | 
g2a2 gf2e e4  | 
w:   | 
e8 z4  | g2a2 a4 a4  | g2a2 b3a a4  | g2a2 b3a a3g  | \
w:   |  ARANAĞME  |   |   | 
g2a2 gf2e e4  | 
w:   | 
e8 z4  | g2a2 a4 a4  | g2a2 b3a a4  | g2a2 b3a a3g  | \
w:   |  Tu na  neh ri   |  ak mam  di *  yor    |  Et ra fı *  mı   | 
g2a2 gf2e e4  | 
w:  yık mam  di *  *  yor    | 
e8 z4  | e2f2 d4 a4  | g2f2 e3d c4  | d2e2 f3e d2c2  | \
w:   |  Ü nü  bü yük   |  Os man  Pa *  şa    |  P lev ne *  den   | 
c2d2 cB2A A4  | 
w:  çık mam  di *  *  yor    | 
A8 z4  | e2f2 d4 a4  | g2f2 e3d c4  | d2e2 f3e d2c2  | \
w:   |  Ü nü  bü yük   |  Os man  Pa *  şa    |  P lev ne *  den   | 
c2d2 cB2A A4  | 
w:  çık mam  di *  *  yor    | 
A8 z4  | |


